resources/svg/folder-shared-line.svg

<svg fill="currentColor" viewBox="0 0 24 24" xmlns="http://www.w3.org/2000/svg"><path d="M22 13H20V7H11.5858L9.58579 5H4V19H13V21H3C2.44772 21 2 20.5523 2 20V4C2 3.44772 2.44772 3 3 3H10.4142L12.4142 5H21C21.5523 5 22 5.44772 22 6V13ZM18 17V13.5L23 18L18 22.5V19H15V17H18Z"/></svg>

<svg xmlns="http://www.w3.org/2000/svg" viewBox="0 0 24 24" fill="currentColor">
    <g>
        <path fill="none" d="M0 0h24v24H0z"/>
        <path fill-rule="nonzero" d="M22 13h-2V7h-8.414l-2-2H4v14h9v2H3a1 1 0 0 1-1-1V4a1 1 0 0 1 1-1h7.414l2 2H21a1 1 0 0 1 1 1v7zm-4 4v-3.5l5 4.5-5 4.5V19h-3v-2h3z"/>
    </g>
</svg>
